svg/u2712.svg

<svg viewBox="0 0 128 128" xmlns="http://www.w3.org/2000/svg">
  <g>
    <g>
      <path d="M123.39,118.93c-0.42-1.99-1.95-2.36-2.84-4.34c0,0-6.58-14.61-9.61-23.71 c-2.09-6.28-3.69-12.6-4.44-16.42c-1.67-8.57-5.17-11.04-9.27-13.53c-9.23-5.61-27.62-17.7-38.55-26.91 C44.92,22.41,37.23,15,37.23,15L25.77,26.46l0,0L14.5,37.73c0,0,7.42,7.69,19.02,21.44c9.22,10.93,21.3,29.32,26.91,38.55 c2.49,4.1,4.97,7.61,13.53,9.27c3.82,0.75,10.14,2.35,16.42,4.44c9.1,3.03,23.71,9.61,23.71,9.61c1.98,0.89,2.35,2.42,4.34,2.84 c3.02,0.64,3.27-1.68,3.27-1.68l-0.61-0.61l0.61,0.6C121.7,122.2,124.03,121.95,123.39,118.93z" fill="#84B0C1"/>
      <path d="M117.92,119.15c2.76,2.18,3.79,3.06,3.79,3.06s-0.7-2.15-4.62-6.98S88.21,86.35,88.21,86.35l-1.93,1.93 C86.29,88.28,113.59,115.72,117.92,119.15z"/>
      <circle cx="85.27" cy="84.86" r="4.56"/>
      <path d="M75.44,51.36c3.77,1.75,8.71,5.69,17.3,11.4c8.8,5.84,8.1,10.26,9.69,15.9 c1.38,4.92,4.09,12.22,6.05,17.31c0.37,0.96-1.52,1.09-2.53-0.62C94.6,76.11,74.22,59.92,73.39,56.01 C72.36,51.13,75.39,51.33,75.44,51.36z" fill="#A8E3F0"/>
      <path d="M56.66,54.56c0,0-13.61,11.09-12.38,13.04C49.6,76.03,62.4,96.3,66.96,99.92 c2.59,2.05,7.76,3.58,16.8,5.86c3.73,0.94,6.8,1.55,9.61,2.79c1.1,0.49,1.94-1.06,0.94-1.72c-9.02-5.97-24.66-15.26-37-32.99 C50.11,63.52,56.66,54.56,56.66,54.56z" fill="#2F7889"/>
    </g>
    <g>
      <path d="M19.63,21C25.21,15.41,32.49,10.04,37,6.9c2.38-1.66,5.61-1.31,7.59,0.81 c16.53,17.66,24.84,27.18,28.25,31.57c1.28,1.64,1.13,3.97-0.34,5.44l-29.36,28.3c-1.47,1.47-3.8,1.62-5.44,0.34 c-4.37-3.39-13.82-11.38-31.31-27.48c-2.15-1.98-2.52-5.25-0.83-7.65C8.71,33.75,14.07,26.56,19.63,21z" fill="#424242"/>
      <path d="M34.26,70.6c3.87-5.49,9.73-13.1,17.16-20.67c6.69-6.81,13.35-11.3,18.59-14.14 c0,0,2.74,0.57,3.7,2.5c1.3,2.61,0.26,4.95-1.21,6.43l-29.36,28.3c-1.47,1.47-4.6,2.81-6.8,1.21 C34.02,72.54,34.26,70.6,34.26,70.6z" fill="#FFC107"/>
      <path d="M61.11,42.71c-2.6,2.53-5.11,5.95-2.21,8.58c1.87,1.7,5.29-0.5,6.58-1.75 c2.61-2.5,8.75-6.35,5.14-9.82C67.2,36.43,63.21,40.67,61.11,42.71z" fill="#FFEE58"/>
      <path d="M52.13,38.89c-6.55-5.75-10.53-9.56-15.08-14.11c-6.79-6.79,2.93-13.83,7.49-9.27 c5.03,5.03,12.42,13.73,15.37,19.5C61.38,37.89,56.04,42.32,52.13,38.89z" fill="#757575"/>
    </g>
  </g>
</svg>

<svg viewBox="0 0 128 128" xmlns="http://www.w3.org/2000/svg">
  <defs/>
  <path d="M123.39,118.93 C122.97,116.94 121.44,116.57 120.55,114.59 C120.55,114.59 113.97,99.98 110.94,90.88 C108.85,84.6 107.25,78.28 106.5,74.46 C104.83,65.89 101.33,63.42 97.23,60.93 C88,55.32 69.61,43.23 58.68,34.02 C44.92,22.41 37.23,15 37.23,15 L25.77,26.46 L25.77,26.46 L14.5,37.73 C14.5,37.73 21.92,45.42 33.52,59.17 C42.74,70.1 54.82,88.49 60.43,97.72 C62.92,101.82 65.4,105.33 73.96,106.99 C77.78,107.74 84.1,109.34 90.38,111.43 C99.48,114.46 114.09,121.04 114.09,121.04 C116.07,121.93 116.44,123.46 118.43,123.88 C121.45,124.52 121.7,122.2 121.7,122.2 L121.09,121.59 L121.7,122.19 C121.7,122.2 124.03,121.95 123.39,118.93 Z" fill="#84B0C1"/>
  <path d="M117.92,119.15 C120.68,121.33 121.71,122.21 121.71,122.21 C121.71,122.21 121.01,120.06 117.09,115.23 C113.17,110.4 88.21,86.35 88.21,86.35 L86.28,88.28 C86.29,88.28 113.59,115.72 117.92,119.15 Z"/>
  <path d="M89.83,84.86 A4.56 4.56 0 1 1 80.71,84.86 A4.56 4.56 0 1 1 89.83,84.86 Z"/>
  <path d="M75.44,51.36 C79.21,53.11 84.15,57.05 92.74,62.76 C101.54,68.6 100.84,73.02 102.43,78.66 C103.81,83.58 106.52,90.88 108.48,95.97 C108.85,96.93 106.96,97.06 105.95,95.35 C94.6,76.11 74.22,59.92 73.39,56.01 C72.36,51.13 75.39,51.33 75.44,51.36 Z" fill="#A8E3F0"/>
  <path d="M56.66,54.56 C56.66,54.56 43.05,65.65 44.28,67.6 C49.6,76.03 62.4,96.3 66.96,99.92 C69.55,101.97 74.72,103.5 83.76,105.78 C87.49,106.72 90.56,107.33 93.37,108.57 C94.47,109.06 95.31,107.51 94.31,106.85 C85.29,100.88 69.65,91.59 57.31,73.86 C50.11,63.52 56.66,54.56 56.66,54.56 Z" fill="#2F7889"/>
  <path d="M19.63,21 C25.21,15.41 32.49,10.04 37,6.9 C39.38,5.24 42.61,5.59 44.59,7.71 C61.12,25.37 69.43,34.89 72.84,39.28 C74.12,40.92 73.97,43.25 72.5,44.72 L43.14,73.02 C41.67,74.49 39.34,74.64 37.7,73.36 C33.33,69.97 23.88,61.98 6.39,45.88 C4.24,43.9 3.87,40.63 5.56,38.23 C8.71,33.75 14.07,26.56 19.63,21 Z" fill="#424242"/>
  <path d="M34.26,70.6 C38.13,65.11 43.99,57.5 51.42,49.93 C58.11,43.12 64.77,38.63 70.01,35.79 C70.01,35.79 72.75,36.36 73.71,38.29 C75.01,40.9 73.97,43.24 72.5,44.72 L43.14,73.02 C41.67,74.49 38.54,75.83 36.34,74.23 C34.02,72.54 34.26,70.6 34.26,70.6 Z" fill="#FFC107"/>
  <path d="M61.11,42.71 C58.51,45.24 56,48.66 58.9,51.29 C60.77,52.99 64.19,50.79 65.48,49.54 C68.09,47.04 74.23,43.19 70.62,39.72 C67.2,36.43 63.21,40.67 61.11,42.71 Z" fill="#FFEE58"/>
  <path d="M52.13,38.89 C45.58,33.14 41.6,29.33 37.05,24.78 C30.26,17.99 39.98,10.95 44.54,15.51 C49.57,20.54 56.96,29.24 59.91,35.01 C61.38,37.89 56.04,42.32 52.13,38.89 Z" fill="#757575"/>
</svg>
